configs/network-icons/zksync-short.svg

<svg width="30" height="17" viewBox="0 0 30 17" fill="none" xmlns="http://www.w3.org/2000/svg">
<path fill-rule="evenodd" clip-rule="evenodd" d="M30 8.47538L21.4986 0V6.20704L13.0575 12.4216L21.4986 12.4274V16.9508L30 8.47538Z" fill="black"/>
<path fill-rule="evenodd" clip-rule="evenodd" d="M0 8.47538L8.50534 16.9508V10.8094L16.8885 4.59075L8.50534 4.58499V0L0 8.47538Z" fill="black"/>
</svg>

<svg xmlns="http://www.w3.org/2000/svg" fill="none" viewBox="0 0 30 17">
  <path fill="#000" fill-rule="evenodd" d="M30 8.475 21.499 0v6.207l-8.441 6.215 8.44.005v4.524L30 8.475Zm-30 0 8.505 8.476v-6.142l8.383-6.218-8.383-.006V0L0 8.475Z" clip-rule="evenodd"/>
</svg>
